X:94
T:Sligo Creek
M:C|
L:1/8
S:BMin
R:Reel
K:Bm
|"Bm"f2ef d B~B2| effe def^g| "A"aA~A2 cBAF | "F#mi"EFAB cBce|
"Bmi"fBef dB~B2| effe defd| "A"eaae fcec|1"F#mi"dB"A"BA "Bmi"B3e:|2"F#mi
"dB"A"BA "Bmi"B3A|
|:"G"GBBA Bcde|"D"fdec df~f2|"A"eA~A2 cBAF | "F#mi"EFAB cBBA|
"G"G3A Bcde|"D"fdec df~f2|"A"eaae fcec|1"Bmi"ABBA "A"B3A:|2"F#mi"ABBA "B
mi"B3e|]
